X:356
M:C|
L:1/8
K:A Minor
|:B|cdeA cdec|BAGd BGdB|cdeA cdea|ge^fd e2A:|
cde^f gage|gage dBGB|cde^f gagf|ea^gb a2A||

